X:9
T:Trip to Easton THO4.009
M:2/4
L:1/8
Z:vmp. Peter Dunk 2010/11.from a transcription by Fynn Titford-Mock 2007
B:Thompson's Compleat Collection of 200 Favourite Country Dances Volume IV.
Q:1/4=120
K:D
f/e/f/g/ ad|cdeA|B/A/B/c/ dB|AFED|f/e/f/g/ ad|c/B/c/d/ ed|cAB^G| A2A2:|
|:A>F A/F/A/F/|G>E G/E/G/E/|F/D/E/F/ G/A/B/c/|dAFD|F>G A/F/A/F/|E>F G/E/G/E/|Bd/B/ AG|FD D2:|
